Obsidian-SemiLight/actions/16s/journal-new.svg

<svg viewBox="0 0 16 16" xmlns="http://www.w3.org/2000/svg"><path d="m3 2v2h-1v2h1v4h-1v2h1v2h6v-1h-3v-10h7v6h1v-7zm1 1h1v10h-1zm7 6v2h-2v1h2v2h1v-2h2v-1h-2v-2z" fill="#4d4d4d"/></svg>

<svg xmlns="http://www.w3.org/2000/svg" viewBox="0 0 16 16">
  <defs id="defs3051">
    <style type="text/css" id="current-color-scheme">
      .ColorScheme-Text {
        color:#4d4d4d;
      }
      </style>
  </defs>
 <path style="fill:currentColor;fill-opacity:1;stroke:none" 
     d="M 3 2 L 3 4 L 2 4 L 2 6 L 3 6 L 3 10 L 2 10 L 2 12 L 3 12 L 3 14 L 9 14 L 9 13 L 6 13 L 6 3 L 13 3 L 13 9 L 14 9 L 14 2 L 3 2 z M 4 3 L 5 3 L 5 13 L 4 13 L 4 3 z M 11 9 L 11 11 L 9 11 L 9 12 L 11 12 L 11 14 L 12 14 L 12 12 L 14 12 L 14 11 L 12 11 L 12 9 L 11 9 z "
     class="ColorScheme-Text"
     />
</svg>
